usr/share/icons/biglinux-icons-material-dark/16/actions/edit-image-face-recognize.svg

<svg xmlns="http://www.w3.org/2000/svg" viewBox="0 0 16 16">
  <defs id="defs3051">
    <style type="text/css" id="current-color-scheme">
      .ColorScheme-Text {
        color:#dedede;
      }
      </style>
  </defs>
 <path style="fill:currentColor;fill-opacity:1;stroke:none" 
     d="M 2 2 L 2 5 L 3 5 L 3 3 L 5 3 L 5 2 L 2 2 z M 6 2 L 6 3 L 10 3 L 10 2 L 6 2 z M 11 2 L 11 3 L 13 3 L 13 5 L 14 5 L 14 2 L 11 2 z M 7.8554688 4 C 7.1506154 4 6.5325467 4.1658269 6 4.4980469 L 6.2109375 5.1582031 C 6.7473975 4.8545631 7.2585806 4.7011719 7.7441406 4.7011719 C 8.1474673 4.7011719 8.4565017 4.7970015 8.671875 4.9863281 C 8.8872483 5.1720881 8.9960938 5.4533779 8.9960938 5.8320312 C 8.9960938 6.0392246 8.9416779 6.2671919 8.8320312 6.5136719 C 8.7263046 6.7565852 8.5941333 6.9969881 8.4375 7.2363281 C 8.2808667 7.4756681 8.1214842 7.7229358 7.9609375 7.9765625 C 7.8043042 8.2301892 7.6682546 8.5091929 7.5507812 8.8164062 C 7.4372079 9.1200463 7.3750146 9.4203035 7.3632812 9.7167969 L 7.890625 9.7167969 C 8.0041783 9.3738635 8.15579 9.0494008 8.34375 8.7421875 C 8.53563 8.4314075 8.7222171 8.1694181 8.9023438 7.9550781 C 9.0863838 7.7407448 9.2613075 7.5248802 9.4296875 7.3105469 C 9.6019875 7.0962135 9.7399902 6.8652877 9.8417969 6.6152344 C 9.9475235 6.365181 10 6.095994 10 5.8066406 C 10 5.4922873 9.9416921 5.2162354 9.8242188 4.9804688 C 9.7106587 4.7411287 9.5512763 4.5514294 9.3476562 4.4121094 C 9.1479496 4.272796 8.9224883 4.1694358 8.671875 4.1015625 C 8.4212617 4.0336892 8.1491487 4 7.8554688 4 z M 2 6 L 2 10 L 3 10 L 3 6 L 2 6 z M 13 6 L 13 10 L 14 10 L 14 6 L 13 6 z M 7.609375 10.816406 C 7.3900883 10.816406 7.220989 10.872021 7.1035156 10.986328 C 6.9899556 11.100641 6.9335938 11.239977 6.9335938 11.404297 C 6.9335938 11.568624 6.9899556 11.710245 7.1035156 11.828125 C 7.220989 11.942438 7.3900883 12 7.609375 12 C 7.828655 12 7.995815 11.942438 8.109375 11.828125 C 8.222935 11.713818 8.2792969 11.572197 8.2792969 11.404297 C 8.2792969 11.239977 8.222935 11.100641 8.109375 10.986328 C 7.995815 10.872021 7.828655 10.816406 7.609375 10.816406 z M 2 11 L 2 14 L 5 14 L 5 13 L 3 13 L 3 11 L 2 11 z M 13 11 L 13 13 L 11 13 L 11 14 L 14 14 L 14 11 L 13 11 z M 6 13 L 6 14 L 10 14 L 10 13 L 6 13 z "
     class="ColorScheme-Text"
     />
</svg>

<svg xmlns="http://www.w3.org/2000/svg" viewBox="0 0 16 16">
<defs id="defs3051">
<style id="current-color-scheme" type="text/css">
.ColorScheme-Text{color:#dedede}
</style>
</defs>
<path d="M2 2v3h1V3h2V2zm4 0v1h4V2zm5 0v1h2v2h1V2zM7.855 4Q6.8 4 6 4.498l.21.66q.806-.456 1.534-.457.605 0 .928.285.323.278.324.846 0 .311-.164.682a5 5 0 0 1-.395.722q-.235.36-.476.74a5 5 0 0 0-.41.84 2.9 2.9 0 0 0-.188.9h.528q.17-.513.453-.974.288-.466.558-.787.276-.322.528-.644.259-.322.412-.696Q10 6.24 10 5.807q0-.472-.176-.827a1.4 1.4 0 0 0-.476-.568q-.3-.21-.676-.31A3 3 0 0 0 7.855 4M2 6v4h1V6zm11 0v4h1V6zm-5.39 4.816q-.33 0-.506.17a.57.57 0 0 0-.17.418.6.6 0 0 0 .17.424q.176.172.505.172.33 0 .5-.172a.58.58 0 0 0 .17-.424.57.57 0 0 0-.17-.418q-.17-.17-.5-.17M2 11v3h3v-1H3v-2zm11 0v2h-2v1h3v-3zm-7 2v1h4v-1z" class="ColorScheme-Text" style="fill:currentColor;fill-opacity:1;stroke:none"/>
</svg>
